svg/fluentui-system-icons/ic_fluent_arrow_autofit_width_dotted_20_filled.svg

<svg width="20" height="20" viewBox="0 0 20 20" fill="none" xmlns="http://www.w3.org/2000/svg">
<path d="M14.7681 15.7121L16.2812 14.2508L14.7681 12.7895C14.4701 12.5017 14.4618 12.0269 14.7496 11.729C15.0373 11.431 15.5121 11.4228 15.8101 11.7105L17.6956 13.5315C18.1027 13.9246 18.1027 14.577 17.6956 14.9701L15.8101 16.7911C15.5121 17.0788 15.0373 17.0705 14.7496 16.7726C14.4618 16.4746 14.4701 15.9998 14.7681 15.7121ZM5.23387 15.7121L3.72073 14.2508L5.23387 12.7895C5.53182 12.5017 5.54009 12.0269 5.25235 11.729C4.9646 11.431 4.4898 11.4228 4.19185 11.7105L2.3063 13.5315C1.8992 13.9246 1.8992 14.577 2.3063 14.9701L4.19185 16.7911C4.4898 17.0788 4.9646 17.0705 5.25235 16.7726C5.54009 16.4746 5.53182 15.9998 5.23387 15.7121ZM8.00096 14.2527C8.00096 14.667 7.66518 15.0027 7.25096 15.0027H6.75096C6.33675 15.0027 6.00096 14.667 6.00096 14.2527C6.00096 13.8385 6.33675 13.5027 6.75096 13.5027H7.25096C7.66518 13.5027 8.00096 13.8385 8.00096 14.2527ZM9.75096 15.0027C9.33675 15.0027 9.00096 14.667 9.00096 14.2527C9.00096 13.8385 9.33675 13.5027 9.75096 13.5027H10.251C10.6652 13.5027 11.001 13.8385 11.001 14.2527C11.001 14.667 10.6652 15.0027 10.251 15.0027H9.75096ZM12.001 14.2527C12.001 14.667 12.3367 15.0027 12.751 15.0027H13.251C13.6652 15.0027 14.001 14.667 14.001 14.2527C14.001 13.8385 13.6652 13.5027 13.251 13.5027H12.751C12.3367 13.5027 12.001 13.8385 12.001 14.2527ZM17.001 5C17.001 3.89543 16.1055 3 15.001 3H5.00096C3.89639 3 3.00096 3.89543 3.00096 5V9.25C3.00096 9.66421 3.33675 10 3.75096 10C4.16518 10 4.50096 9.66421 4.50096 9.25V5C4.50096 4.72386 4.72482 4.5 5.00096 4.5H15.001C15.2771 4.5 15.501 4.72386 15.501 5V9.25C15.501 9.66421 15.8367 10 16.251 10C16.6652 10 17.001 9.66421 17.001 9.25V5Z" fill="#212121"/>
</svg>

<svg xmlns="http://www.w3.org/2000/svg" width="20" height="20"><path d="m14.768 15.712 1.513-1.461-1.513-1.461a.75.75 0 1 1 1.042-1.08l1.886 1.821a1 1 0 0 1 0 1.44l-1.886 1.82a.75.75 0 0 1-1.042-1.079Zm-9.534 0L3.72 14.251l1.513-1.461a.75.75 0 0 0-1.042-1.08l-1.886 1.821a1 1 0 0 0 0 1.44l1.886 1.82a.75.75 0 0 0 1.042-1.079ZM8 14.252a.75.75 0 0 1-.75.75h-.5a.75.75 0 1 1 0-1.5h.5a.75.75 0 0 1 .75.75Zm1.75.75a.75.75 0 1 1 0-1.5h.5a.75.75 0 0 1 0 1.5h-.5Zm2.25-.75c0 .415.336.75.75.75h.5a.75.75 0 1 0 0-1.5h-.5a.75.75 0 0 0-.75.75ZM17 5a2 2 0 0 0-2-2H5a2 2 0 0 0-2 2v4.25a.75.75 0 0 0 1.5 0V5a.5.5 0 0 1 .5-.5h10a.5.5 0 0 1 .5.5v4.25a.75.75 0 1 0 1.5 0V5Z"/></svg>
